icons/svg/format-header-down.svg

﻿<?xml version="1.0" encoding="utf-8"?>
<!DOCTYPE svg PUBLIC "-//W3C//DTD SVG 1.1//EN" "http://www.w3.org/Graphics/SVG/1.1/DTD/svg11.dtd">
<svg xmlns="http://www.w3.org/2000/svg" xmlns:xlink="http://www.w3.org/1999/xlink" version="1.1" baseProfile="full" width="24" height="24" viewBox="0 0 24.00 24.00" enable-background="new 0 0 24.00 24.00" xml:space="preserve">
	<path fill="#000000" fill-opacity="1" stroke-width="0.2" stroke-linejoin="round" d="M 2,4.00001L 4,4.00001L 4,10L 8,10L 8,4.00001L 10,4.00001L 10,18L 8,18L 8,12L 4,12L 4,18L 2,18L 2,4.00001 Z M 20.5862,8.585L 17,12.172L 13.4142,8.585L 12.0002,9.99902L 17,15L 22.0002,9.99902L 20.5862,8.585 Z "/>
</svg>

<svg xmlns="http://www.w3.org/2000/svg" version="1.1" baseProfile="full" width="24" height="24" viewBox="0 0 24.00 24.00" xml:space="preserve"><path fill="#000" fill-opacity="1" stroke-width=".2" stroke-linejoin="round" d="M2 4h2v6h4V4h2v14H8v-6H4v6H2V4zm18.586 4.585L17 12.172l-3.586-3.587L12 10l5 5 5-5-1.414-1.415z"/></svg>
